X:4855
T:Entremediu de L.lena
C:Trad.
M:3/8
L:1/8
Q:1/4=150
K:C
C|: EE/D/E/F/|G2 A|FE/F/E/D/|
ECC|EE/D/E/F/|G2 A|F E/F/E/D/|C2 C :|
|: AF/A/F/A/|GE/G/E/G/|FE/F/E/D/|ECC|
AF/A/F/A/|GE/G/E/G/|1 FED|C2 C :|2 c/G/E/G/E/G/|
|c/G/E/G/E/G/|GAB|c2 G|cec|A3/2G/E|GFD|C2 G|
|cec|A3/2G/E|AA/B/A/B/|G3/2F/E|
GG/A/G/A/|F3/2E/D|FE/D/E/F/|G2 A/B/|cec|
A3/2G/E|GFD|C2 C|
